icons/service-white.svg

<svg fill="none" height="41" viewBox="0 0 48 41" width="48" xmlns="http://www.w3.org/2000/svg"><path d="m19 19c-2.6125 0-4.849-.9302-6.7094-2.7906s-2.7906-4.0969-2.7906-6.7094.9302-4.84896 2.7906-6.70937c1.8604-1.860422 4.0969-2.79063 6.7094-2.79063s4.849.930208 6.7094 2.79063c1.8604 1.86041 2.7906 4.09687 2.7906 6.70937s-.9302 4.849-2.7906 6.7094-4.0969 2.7906-6.7094 2.7906zm-19 19v-6.65c0-1.3062.336458-2.5333 1.00937-3.6812.67292-1.148 1.60313-2.0188 2.79063-2.6125 2.01875-1.0292 4.29479-1.9 6.8281-2.6125 2.5334-.7125 5.324-1.0688 8.3719-1.0688h.8312c.2376 0 .475.0396.7125.1188-.3166.7125-.5838 1.4546-.8015 2.2265s-.386 1.5735-.5047 2.4047h-.2375c-2.8104 0-5.3339.3563-7.5703 1.0688-2.23647.7125-4.0672 1.425-5.4922 2.1375-.35625.1979-.64323.475-.86094.8312-.21771.3563-.32656.7521-.32656 1.1875v1.9h14.9625c.2375.8313.5542 1.6526.95 2.4641.3958.8114.8312 1.5734 1.3063 2.2859zm33.25 2.375-.7125-3.5625c-.475-.1979-.9203-.4057-1.3359-.6234-.4157-.2177-.8412-.4849-1.2766-.8016l-3.4438 1.0688-2.375-4.0375 2.7313-2.375c-.0792-.5542-.1187-1.0688-.1187-1.5438s.0395-.9896.1187-1.5437l-2.7313-2.375 2.375-4.0375 3.4438 1.0687c.4354-.3167.8609-.5839 1.2766-.8016.4156-.2177.8609-.4255 1.3359-.6234l.7125-3.5625h4.75l.7125 3.5625c.475.1979.9203.4156 1.3359.6531.4157.2375.8412.5344 1.2766.8907l3.4437-1.1875 2.375 4.1562-2.7312 2.375c.0792.475.1187.9698.1187 1.4844s-.0395 1.0094-.1187 1.4844l2.7312 2.375-2.375 4.0375-3.4437-1.0688c-.4354.3167-.8609.5839-1.2766.8016-.4156.2177-.8609.4255-1.3359.6234l-.7125 3.5625zm2.375-7.125c1.3062 0 2.4245-.4651 3.3547-1.3953s1.3953-2.0484 1.3953-3.3547c0-1.3062-.4651-2.4245-1.3953-3.3547s-2.0485-1.3953-3.3547-1.3953c-1.3063 0-2.4245.4651-3.3547 1.3953s-1.3953 2.0485-1.3953 3.3547c0 1.3063.4651 2.4245 1.3953 3.3547s2.0484 1.3953 3.3547 1.3953zm-16.625-19c1.3062 0 2.4245-.4651 3.3547-1.3953s1.3953-2.0484 1.3953-3.3547c0-1.30625-.4651-2.42448-1.3953-3.35469s-2.0485-1.39531-3.3547-1.39531-2.4245.4651-3.3547 1.39531-1.3953 2.04844-1.3953 3.35469c0 1.3063.4651 2.4245 1.3953 3.3547s2.0485 1.3953 3.3547 1.3953z" fill="#fff"/></svg>

<svg width="48" height="41" viewBox="0 0 48 41" fill="none" xmlns="http://www.w3.org/2000/svg">
<path d="M19 19C16.3875 19 14.151 18.0698 12.2906 16.2094C10.4302 14.349 9.5 12.1125 9.5 9.5C9.5 6.8875 10.4302 4.65104 12.2906 2.79063C14.151 0.930208 16.3875 0 19 0C21.6125 0 23.849 0.930208 25.7094 2.79063C27.5698 4.65104 28.5 6.8875 28.5 9.5C28.5 12.1125 27.5698 14.349 25.7094 16.2094C23.849 18.0698 21.6125 19 19 19ZM0 38V31.35C0 30.0438 0.336458 28.8167 1.00937 27.6688C1.68229 26.5208 2.6125 25.65 3.8 25.0563C5.81875 24.0271 8.09479 23.1563 10.6281 22.4438C13.1615 21.7313 15.9521 21.375 19 21.375H19.8312C20.0688 21.375 20.3062 21.4146 20.5437 21.4938C20.2271 22.2063 19.9599 22.9484 19.7422 23.7203C19.5245 24.4922 19.3562 25.2938 19.2375 26.125H19C16.1896 26.125 13.6661 26.4813 11.4297 27.1938C9.19323 27.9063 7.3625 28.6188 5.9375 29.3313C5.58125 29.5292 5.29427 29.8063 5.07656 30.1625C4.85885 30.5188 4.75 30.9146 4.75 31.35V33.25H19.7125C19.95 34.0813 20.2667 34.9026 20.6625 35.7141C21.0583 36.5255 21.4937 37.2875 21.9688 38H0ZM33.25 40.375L32.5375 36.8125C32.0625 36.6146 31.6172 36.4068 31.2016 36.1891C30.7859 35.9714 30.3604 35.7042 29.925 35.3875L26.4812 36.4563L24.1062 32.4188L26.8375 30.0438C26.7583 29.4896 26.7188 28.975 26.7188 28.5C26.7188 28.025 26.7583 27.5104 26.8375 26.9563L24.1062 24.5813L26.4812 20.5438L29.925 21.6125C30.3604 21.2958 30.7859 21.0286 31.2016 20.8109C31.6172 20.5932 32.0625 20.3854 32.5375 20.1875L33.25 16.625H38L38.7125 20.1875C39.1875 20.3854 39.6328 20.6031 40.0484 20.8406C40.4641 21.0781 40.8896 21.375 41.325 21.7313L44.7687 20.5438L47.1437 24.7L44.4125 27.075C44.4917 27.55 44.5312 28.0448 44.5312 28.5594C44.5312 29.074 44.4917 29.5688 44.4125 30.0438L47.1437 32.4188L44.7687 36.4563L41.325 35.3875C40.8896 35.7042 40.4641 35.9714 40.0484 36.1891C39.6328 36.4068 39.1875 36.6146 38.7125 36.8125L38 40.375H33.25ZM35.625 33.25C36.9312 33.25 38.0495 32.7849 38.9797 31.8547C39.9099 30.9245 40.375 29.8063 40.375 28.5C40.375 27.1938 39.9099 26.0755 38.9797 25.1453C38.0495 24.2151 36.9312 23.75 35.625 23.75C34.3187 23.75 33.2005 24.2151 32.2703 25.1453C31.3401 26.0755 30.875 27.1938 30.875 28.5C30.875 29.8063 31.3401 30.9245 32.2703 31.8547C33.2005 32.7849 34.3187 33.25 35.625 33.25ZM19 14.25C20.3062 14.25 21.4245 13.7849 22.3547 12.8547C23.2849 11.9245 23.75 10.8063 23.75 9.5C23.75 8.19375 23.2849 7.07552 22.3547 6.14531C21.4245 5.2151 20.3062 4.75 19 4.75C17.6938 4.75 16.5755 5.2151 15.6453 6.14531C14.7151 7.07552 14.25 8.19375 14.25 9.5C14.25 10.8063 14.7151 11.9245 15.6453 12.8547C16.5755 13.7849 17.6938 14.25 19 14.25Z" fill="white"/>
</svg>
